dist/img/icons/conditions__icons/calendar.svg

<svg width="18" height="18" viewBox="0 0 18 18" fill="none" xmlns="http://www.w3.org/2000/svg">
<path d="M5 7C4.44772 7 4 7.44771 4 8C4 8.55228 4.44772 9 5 9H13C13.5523 9 14 8.55228 14 8C14 7.44771 13.5523 7 13 7H5Z" fill="white"/>
<path fill-rule="evenodd" clip-rule="evenodd" d="M3 0C1.34315 0 0 1.34315 0 3V15C0 16.6569 1.34315 18 3 18H15C16.6569 18 18 16.6569 18 15V3C18 1.34315 16.6569 0 15 0H3ZM2 15V5H16V15C16 15.5523 15.5523 16 15 16H3C2.44772 16 2 15.5523 2 15Z" fill="white"/>
</svg>

<svg width="18" height="18" fill="none" xmlns="http://www.w3.org/2000/svg"><path d="M5 7a1 1 0 100 2h8a1 1 0 100-2H5z" fill="#fff"/><path fill-rule="evenodd" clip-rule="evenodd" d="M3 0a3 3 0 00-3 3v12a3 3 0 003 3h12a3 3 0 003-3V3a3 3 0 00-3-3H3zM2 15V5h14v10a1 1 0 01-1 1H3a1 1 0 01-1-1z" fill="#fff"/></svg>
